!!!!SEGMENT: pl-kk--kk-i-273--002_anonim--tollite-portas.krn
!!!cenid: 17xx:2074
!!!COM: Anonim
!!!COM-rismid: pe30004985
!!!CDT:
!!!CNT:
!!!OTL: Tollite portas
!!!PDT:
!!!AGN: Sacred
!!!SMS-siglum: PL-Kk
!!!SMS-shelfmark: Kk.I.273
!!!SMS-shelfwork: 002 W
!!!SMS-variant:
!!!SMS-altvar:
!!!NIFC-rismid: 1001147456
!!!URL-scan: http://repozytorium.nifc.pl/skany/pl-kk-nut--i-273
!!!ONB-nifc: UWAGA: utwory w zbiorze: 1. Rorate caeli desuper, 2. Tollite portas, 3. Ecce virgo concipiet, 4. Alleluia post partum Virgo
!!!key:
**kern	**text	**fba	**kern	**text	**kern	**text	**kern	**text	**kern	**text
*part5	*part5	*	*part4	*part4	*part3	*part3	*part2	*part2	*part1	*part1
*staff5	*staff5	*	*staff4	*staff4	*staff3	*staff3	*staff2	*staff2	*staff1	*staff1
*group2	*	*	*group1	*	*group1	*	*group1	*	*group1	*
*Iempty	*	*	*Iempty	*	*Itenor	*	*Ialto	*	*Ivox	*
*I"Baſso Ripieno.	*	*	*I"Baſso	*	*I"Tenore	*	*I"Alto.	*	*I"Canto.	*
*I'B rip	*	*	*I'B	*	*I'T	*	*I'A	*	*I'S	*
*clefF4	*	*	*clefF4	*	*clefC4	*	*clefC3	*	*clefC1	*
*k[]	*	*	*k[]	*	*k[]	*	*k[]	*	*k[]	*
*C:	*	*	*C:	*	*C:	*	*C:	*	*C:	*
*M3/2	*	*	*M3/2	*	*M3/2	*	*M3/2	*	*M3/2	*
=1	=1	=1	=1	=1	=1	=1	=1	=1	=1	=1
*	*	*	*	*	*2\right	*	*2\right	*	*	*
!	!	!	!LO:TX:a:t=Graduale	!	!LO:TX:a:t=Graduale	!	!LO:TX:a:t=Graduale	!	!LO:TX:a:t=[Graduale]	!
2.C/	Tol-	.	2.C/	Tol-	2.c\	Tol-	2.e\	Tol-	2.g/	Tol-
4C/	-li-	.	4C/	-li-	4c\	-li-	4e\	-li-	4g/	-li-
2C/	-te	.	2C/	-te	2c\	-te	2e\	-te	2g/	-te
=2	=2	=2	=2	=2	=2	=2	=2	=2	=2	=2
1G	por-	.	1G	por-	1B	por-	1d	por-	1g	por-
*2\right	*	*	*2\right	*	*	*	*	*	*	*
2G\	-tas	.	2G\	-tas	2B\	-tas	2d\	-tas	2g/	-tas
=3	=3	=3	=3	=3	=3	=3	=3	=3	=3	=3
2.E\	Pr(in)-	.	2.E\	Prin-	2.c\	Prin-	2.e\	Prin-	2.g/	Prin-
4E\	-ci-	.	4E\	-ci-	4c\	-ci-	4e\	-ci-	4g/	-ci-
2E\	-pes	.	2E\	-pes	2c\	-pes	2e\	-pes	2g/	-pes
=4	=4	=4	=4	=4	=4	=4	=4	=4	=4	=4
*	*ij	*	*	*ij	*	*ij	*	*ij	*2\right	*ij
2.F\	Pr(in)-	.	2.F\	Prin-	2.A\	Prin-	2.c/	Prin-	2.a\	Prin-
4F\	-ci-	.	4F\	-ci-	4A\	-ci-	4c/	-ci-	4a\	-ci-
2E\	-pes	.	2E\	-pes	2c\	-pes	2c/	-pes	2g/	-pes
*	*Xij	*	*	*Xij	*	*Xij	*	*Xij	*	*Xij
=5	=5	=5	=5	=5	=5	=5	=5	=5	=5	=5
(2F\	Ve-	.	(2F\	Ve-	1c	ve-	1.fT	Ve-	1a	Ve-
2D\)	.	.	2D\	.	.	.	.	.	.	.
2G\	.	.	2G\)	.	2B\	.	.	.	2g/	.
=6	=6	=6	=6	=6	=6	=6	=6	=6	=6	=6
2C,<</	-stras,	.	2C,<</	-stras,	2c,<\	-stras	2e,<\	-stras	2g,</	-stras
2c\	et	.	2c\	et	2e\	et	2g\	et	2cc\	et
4B\	e-	.	4B\	e-	4d\	e-	4g\	e-	4dd\	e-
4B\	-le-	.	4B\	-le-	4d\	-le-	4g\	-le-	4dd\	-le-
=7	=7	=7	=7	=7	=7	=7	=7	=7	=7	=7
2.c\	-va-	.	2.c\	-va-	2.e\	-va-	2.g\	-va-	2.cc\	-va-
4c\	-mi-	.	4c\	-mi-	4e\	-mi-	4g\	-mi-	4cc\	-mi-
*	*	*	*	*	*custos:c	*	*	*	*custos:a	*
2G\	-ni	.	2G\	-ni	2d\	-ni	2g\	-ni	2b\	-ni
!	!	!	!LO:LB:g=original	!	!LO:LB:g=original	!	!	!	!LO:LB:g=original	!
=8	=8	=8	=8	=8	=8	=8	=8	=8	=8	=8
1A	por-	.	1A	por-	1c	por-	1e	por-	(2.a\	por-
.	.	.	.	.	.	.	.	.	4b\)	.
2E\	-tae	.	2E\	-tae	2e\	-tae	2g\	-tae	2cc\	-tae
!LO:LB:g=original	!	!	!	!	!	!	!LO:LB:g=original	!	!	!
=9	=9	=9	=9	=9	=9	=9	=9	=9	=9	=9
*	*ij	*	*	*	*	*ij	*	*	*	*ij
2F\	por-	.	2F\	por-	2A\	por-	2fn\	por-	2cc\	por-
4F\	-tae	.	4F\	-tae	(4A\	-tae	2f\	-tae	2cc,<\	-tae
*	*Xij	*	*	*	*	*Xij	*	*	*	*Xij
4G\	.	.	4G\	.	4B\)	.	.	.	.	.
2A\	ae-	.	2A\	ae-	2c\	ae-	2e\	ae-	2cc\	ae-
=10	=10	=10	=10	=10	=10	=10	=10	=10	=10	=10
2F\	-ter-	.	2F\	-ter-	2f\	-ter-	2a\	-ter-	2cc\	-ter-
1G	-na-	.	1G	-na-	1d	-na-	2g\	-na-	(2cc\	-na-
.	.	.	.	.	.	.	2g,<\	-les.	2b\)	.
=11	=11	=11	=11	=11	=11	=11	=11	=11	=11	=11
!	!	!	!	!	!	!	!LO:TX:a:t=c.	!	!	!
2C/	-les	.	2C/	-les	2e\	-les	2c\	et	2cc\	-les,
2rBB	.	.	2r	.	2rc	.	2c\	in-	2r	.
2rBB	.	.	2r	.	2rc	.	2c\	-tro-	2r	.
=12	=12	=12	=12	=12	=12	=12	=12	=12	=12	=12
2G\	et	.	2G\	et	2d\	et	2g\	-i-	2b\	et
2G\	in-	.	2G\	in-	2d\	in-	2g\	-bit	2g/	in-
2G\	-tro-	.	2G\	-tro-	2d\	-tro-	4g\	in-	2b\	-tro-
.	.	.	.	.	.	.	4g\	-tro-	.	.
=13	=13	=13	=13	=13	=13	=13	=13	=13	=13	=13
2c\	-i-	.	2c\	-i-	2e\	-i-	2g\	-i-	2cc\	-i-
2B\	-bit	.	2B\	-bit	2d\	-bit	2g\	-bit	2dd\	-bit
2A\	Rex	.	2A\	Rex	2c\	Rex	2f#X\	Rex	2cc\	Rex
=14	=14	=14	=14	=14	=14	=14	=14	=14	=14	=14
1G	glo-	.	1G	glo-	1d	glo-	1g	glo-	1cc	glo-
2G\	-ri-	.	2G\	-ri-	2d\	-ri-	2g\	-ri-	2b\	-ri-
=15-	=15	=15-	=15	=15	=15-	=15	=15-	=15-	=15	=15
1.C	-ae	.	1.C	-ae	1.e	-ae	1.g	-ae	1.cc	-ae
=16||	=16||	=16||	=16||	=16||	=16||	=16||	=16||	=16||	=16||	=16||
2A\	Quis	.	1A	Quis	1c	Quis	1e	Quis	1a	Quis
1A	a-	.	.	.	.	.	.	.	.	.
*	*	*	*	*	*	*	*	*	*custos:b	*
.	.	.	2A\	a-	2c\	a-	2e\	a-	2a\	a-
!	!	!	!	!	!	!	!	!	!LO:LB:g=original	!
=17	=17	=17	=17-	=17	=17-	=17	=17	=17	=17	=17
2G#X\	-scen-	.	2G#X\	-scen-	2B\	-scen-	2e\	-scen-	2b\	-scen-
2G#\	-det	.	2G#\	-det	2B\	-det	2e\	-dit	2b\	-det
2A\	in	.	2A\	in	2c\	in	2e\	in	2a\	in
!	!	!	!LO:LB:g=original	!	!LO:LB:g=original	!	!LO:LB:g=original	!	!	!
=18	=18	=18	=18	=18	=18	=18	=18	=18	=18	=18
1F	Mon-	.	1F	mon-	1c	mon-	1a	mon-	1a	mon-
2D/	-tem	.	2D/	-tem	2d\	-tem	2f\	-tem	2b\	-tem
=19	=19	=19	=19	=19	=19	=19	=19	=19	=19	=19
2.E\	D(o-	.	2.E\	Do-	2.B\	Do-	2.e\	Do-	2.g#X/	Do-
4E\	-mi)-	.	4E\	-mi-	4B\	-mi-	4e\	-mi-	4g#/	-mi-
2E\	-ni	.	2E\	-ni	2B\	-ni	2e,<\	-ni	2g#/	-ni
!LO:LB:g=original	!	!	!	!	!	!	!	!	!	!
=20	=20	=20	=20	=20	=20	=20	=20	=20	=20	=20
2A\	aut	.	2A\	aut	2c\	aut	2e\	aut	2a\	aut
2A\	quis	.	2A\	quis	2c\	quis	2e\	quis	2a\	quis
2E\	.	.	2E\	.	2e\	.	2g#X\	.	2b\	.
=21	=21	=21	=21	=21	=21	=21	=21	=21	=21	=21
2F\	ſta-	.	2F\	sta-	2c\	sta-	2a\	sta-	2a\	sta-
2F\	-bit	.	2F\	-bit	2c\	-bit	2a,<\	-bit	2a\	-bit
2D\	in	.	2D/	in	2d\	in	2f\	in	2a\	in
=22	=22	=22	=22	=22	=22	=22	=22	=22	=22	=22
2D\	lo-	.	2D\	lo-	2d\	lo-	(2f\	lo-	2a\	lo-
1E	.	.	1E	.	1B	.	1e)	.	1g#X	.
=23	=23	=23	=23	=23	=23	=23	=23	=23	=23	=23
2AA,</	-co	.	2AA,</	-co	2c,<\	-co	2e,<\	-co	1a,<	-co
*	*ij	*	*	*	*	*	*	*	*	*
1A	in	.	1A	in	1c	in	1e	in	.	.
.	.	.	.	.	.	.	.	.	2a\	in
=24	=24	=24	=24	=24	=24	=24	=24	=24	=24	=24
2.F#X\	lo-	.	2.F#X\	lo-	2.d\	lo-	2.f#X\	lo-	2.a\	lo-
4E\	-co	.	4E\	-co	4e\	-co	4g\	-co	4g\	-co
*	*Xij	*	*	*	*	*	*	*	*	*
4F#\	S(an)-	.	4F#\	san-	4d\	san-	4f#\	san-	4a\	san-
4D\	-cto	.	4D\	-cto	4c\	-cto	4e\	-cto	4a\	-cto
=25	=25	=25	=25	=25	=25	=25	=25	=25	=25-	=25
1G	e-	.	1.G	e-	1.B	e-	1.d	e-	1.gn	e-
2GG	.	.	.	.	.	.	.	.	.	.
=26	=26	=26	=26	=26	=26-	=26	=26	=26	=26	=26
*custos:F	*	*	*custos:F	*	*	*	*	*	*	*
!LO:TX:b:t=Vertat(ur)	!	!	!	!	!	!	!	!	!	!
1.C	-jus.	.	1.C	-jus.	1.c	-jus.	1.e	-jus.	1.g	-jus.
!LO:PB:g=original	!	!	!LO:LB:g=original	!	!LO:LB:g=original	!	!	!	!LO:LB:g=original	!
=27||	=27||	=27||	=27||	=27||	=27||	=27||	=27||	=27||	=27||	=27||
2.F\	In-	.	2.F\	In-	2.A/	In-	2.fn\	In-	2.cc\	In-
4F\	-no-	.	4F\	-no-	4A/	-no-	4f\	-no-	4cc\	-no-
2F\	-cens	.	2F\	-cens	2A,</	-cens	2f\	-cens	2cc\	-cens
!	!	!	!	!	!	!	!LO:LB:g=original	!	!	!
=28	=28	=28	=28	=28	=28	=28	=28	=28	=28	=28
*	*ij	*	*	*ij	*	*ij	*	*	*	*ij
2.F\	In-	4 2	2.F\	In-	2.G/	In-	2.d\	In-	2.b\	In-
4F\	-no-	.	4F\	-no-	4G/	-no-	4d\	-no-	4b\	-no-
2E\	-cens	.	2E\	-cens	2G,</	-cens	2e\	-cens	2cc\	-cens
*	*Xij	*	*	*Xij	*	*Xij	*	*	*	*Xij
=29	=29	=29	=29	=29	=29	=29	=29	=29	=29	=29
1D	ma-	.	1D	ma-	1A	ma-	1f	ma-	1cc	ma-
2D/	-ni-	.	2D/	-ni-	2F/	-ni-	2f\	-ni-	2b\	-ni-
=30	=30	=30	=30	=30	=30	=30	=30	=30	=30	=30
2C/	-b(us)	.	2C/	-bus	2G,</	-bus	2e,<\	-b(us)	2cc\	-bus
2r	.	.	2r	.	(2c\	et	(2e\	et	(2cc\	et
2r	.	.	2r	.	2G/)	.	2d\)	.	2b\)	.
=31	=31	=31	=31	=31	=31	=31	=31	=31	=31	=31
0.r	.	.	0.r	.	(2.A\	mun-	(2.e\	mun-	2.cc\	mun-
.	.	.	.	.	4B\)	.	4d\)	.	4b\	.
.	.	.	.	.	2c\	.	2c/	.	2a\	.
=32-	=32	=32	=32-	=32	=32	=32	=32	=32	=32	=32
.	.	.	.	.	2A,<\	-do	2e,<\	-do	4a\	-do
.	.	.	.	.	.	.	.	.	4g/	.
.	.	.	.	.	1B	cor-	(2e\	cor-	1f#X	Cor-
.	.	.	.	.	.	.	2d#X\)	.	.	.
=33	=33	=33	=33	=33	=33	=33	=33	=33	=33	=33
2r	.	.	2r	.	2E,</	-de	2e,<\	de	2g#X,</	-de,
(2E\	et	.	(2E\	et	2e\	et	1e	et	(2g#X/	mun-
2A\)	.	.	2A\)	.	2c\	.	.	.	2a/)	.
=34	=34	=34	=34	=34	=34	=34	=34	=34	=34	=34
1G#X	mun-	.	1G#X	mun-	1e	mun-	1e	mun-	1b	.
2A\	-do	.	2A\	-do	2c\	-di	2e\	-do	2a\	-do
!	!	!	!	!	!	!	!	!	!LO:LB:g=original	!
=35	=35	=35	=35	=35	=35-	=35	=35	=35	=35	=35
*	*	*	*	*	*custos:c	*	*	*	*	*
2D\	cor-	.	2D\	cor-	1.B	cor-	2f\	cor-	1a	cor-
1E	.	.	1E	.	.	.	1e	.	.	.
.	.	.	.	.	.	.	.	.	2g#X/	.
!	!	!	!	!	!LO:LB:g=original	!	!	!	!	!
=36	=36	=36	=36	=36	=36	=36	=36	=36	=36	=36
2AA/	-de	.	2AA,</	-de	2c,<\	-de	2e,<\	-de	2a,<\	-de
2A\	mun-	.	2A\	mun-	2c\	mun-	2e\	mun-	2a\	mun-
2E\	-do	.	2E\	-do	2B\	-do	2e\	-do	2b\	-do
!	!	!	!	!	!	!	!LO:LB:g=original	!	!	!
=37	=37	=37	=37	=37	=37	=37	=37	=37	=37	=37
1.F	cor-	.	1.F	cor-	1.A	cor-	1e	cor-	1cc	Cor-
.	.	.	.	.	.	.	2d\	.	2a\	.
=38-	=38	=38	=38-	=38	=38-	=38	=38	=38	=38	=38
1.E	-de	.	1.E	-de.	1.G#X	-de.	1.e	-de.	1.b	-de
!LO:LB:g=original	!	!	!LO:LB:g=original	!	!	!	!	!	!	!
=39||	=39||	=39||	=39||	=39||	=39||	=39||	=39||	=39||	=39||	=39||
*M3/2	*	*	*M3/2	*	*M3/2	*	*M3/2	*	*M3/2	*
2c\	Al-	.	2c\	Al-	2e\	Al-	2e\	Al-	2g/	Al-
2c\	-le-	.	2c\	-le-	2e\	-le-	2e\	-le-	2g/	-le-
2A\	-lu-	.	2A\	-lu-	4f#X\	-lu-	2f#X\	-lu-	2cc\	-lu-
.	.	.	.	.	4e\	.	.	.	.	.
=40	=40	=40	=40	=40	=40-	=40	=40	=40	=40	=40
1B,<	-ia	.	1B,<	-ia	1d#X	-ia	1f#X	-ia	1b	-ja
*	*ij	*	*	*	*	*	*	*	*	*ij
2E\	Al-	.	2E\	al-	2e\	al-	2g\	al-	2b\	Al-
=41	=41	=41	=41	=41	=41	=41	=41	=41	=41	=41
2E\	-le-	.	2E\	-le-	1e	-le-	2g\	-le-	2b\	-le-
2B\	-lu-	.	2B\	-lu-	.	.	1f#X	-lu-	1b	-lu-
2BB/	.	.	2BB/	.	2d#X\	-lu-	.	.	.	.
=42-	=42	=42	=42	=42	=42	=42	=42	=42	=42	=42
1.E	-ia	.	1.E	-ia	1.e	-ia	1.g#X,<	-ia	1.b	-ja
*	*Xij	*	*	*	*	*	*	*	*	*Xij
=43	=43	=43	=43	=43	=43	=43	=43	=43	=43	=43
2C/	al-	.	2C/	al-	2G/	al-	2e\	al-	2cc\	al-
2E\	-le-	.	2E\	-le-	2G/	-le-	2e\	-le-	2cc\	-le-
2E\	-lu-	.	2E\	-lu-	2G/	-lu-	2e\	-lu-	2cc\	-lu-
=44	=44	=44	=44	=44	=44	=44	=44	=44	=44	=44
2F\	.	.	2F\	.	2A/	-ia	2fn,<\	-ia	1cc	-ia
2C/	-ia	.	2C/	-ia	2G/	.	2e\	al-	.	.
*	*ij	*	*	*	*	*	*	*	*	*
*	*	*	*	*	*	*	*	*	*custos:b	*
[<2F\	al-	.	[<2F\	al-	2A/	.	2f\	.	2a/	al-
!	!	!	!	!	!	!	!	!	!LO:LB:g=original	!
=45	=45	=45	=45	=45	=45	=45	=45	=45	=45	=45
1F]	.	.	1F]	.	1.G	al-	1d	.	1b	-le-
2E\	.	.	2E\	.	.	.	2g\	.	2cc\	.
!	!	!	!	!	!LO:LB:g=original	!	!	!	!	!
=46-	=46	=46	=46	=46	=46	=46	=46	=46	=46	=46
2F\	-le-	.	2F\	-le-	2A/	-le-	4f\	le-	1cc	-lu-
.	.	.	.	.	.	.	4e\	.	.	.
1G	-lu-	.	1G	-lu-	1G	-lu-	1d	-lu-	.	.
.	.	.	.	.	.	.	.	.	2b\	.
!	!	!	!	!	!	!	!LO:LB:g=original	!	!	!
=47	=47	=47	=47	=47	=47	=47	=47	=47	=47	=47
2C,</	-ia	.	2C,</	-ia	2G,</	-ia	2e,<\	-ia	2cc,<\	-ia
2A\	al-	.	2A\	al-	2A/	al-	2e\	al-	2cc\	al-
*	*	*	*custos:A	*	*	*	*	*	*	*
2E\	-le-	.	2E\	-le-	2G#X/	-le-	2e\	-le-	2b\	-le-
!	!	!	!LO:LB:g=original	!	!	!	!	!	!	!
=48-	=48	=48	=48	=48	=48	=48	=48	=48	=48	=48
1.A	-lu-	.	1.A	-lu-	1.A	-lu-	1.e	-lu-	1.cc	-lu-
=49-	=49	=49	=49	=49	=49-	=49	=49	=49	=49-	=49-
1.E	-ia	.	1.E	-ia	1.G#X	-ia	1.e	-ia.	1.b	-ia
*	*Xij	*	*	*	*	*	*	*	*	*
!LO:LB:g=original	!	!	!	!	!	!	!	!	!	!
=50||	=50||	=50||	=50||	=50||	=50||	=50||	=50||	=50||	=50||	=50||
!	!	!	!	!	!	!	!LO:TX:a:t=1.	!	!	!
1.r	.	.	1.r	.	1.re	.	1.ra	.	2ee\	A-
.	.	.	.	.	.	.	.	.	2ee\	-ve
.	.	.	.	.	.	.	.	.	2ee\	Ma-
=51	=51	=51	=51	=51	=51	=51	=51	=51	=51	=51
2A\	A-	.	2A\	A-	2c\	A-	2e\	A-	1cc	-ri-
2A\	-ve	.	2A\	-ve	2c\	-ve	2e\	-ve	.	.
2A\	Ma-	.	2A\	Ma-	2c\	Ma-	2e\	Ma-	2cc\	-a
=52	=52	=52	=52	=52	=52	=52	=52	=52	=52	=52
1F	-ri-	.	1F	-ri-	1A	-ri-	1f	-ri-	2.dd\	gra-
.	.	.	.	.	.	.	.	.	4dd\	-ti-
2F\	-a	.	2F\	-a	2A/	-a	2f\	-a	2dd\	-a
=53	=53	=53	=53	=53	=53	=53	=53	=53	=53	=53
2.G\	gra-	.	2.G\	gra-	2.B\	gra-	2.d\	gra-	1b	ple-
4G\	-ti-	.	4G\	-ti-	4B\	-ti-	4d\	-ti-	.	.
2G\	-a	.	2G\	-a	2B\	-a	2d\	-a	2b\	-na
!	!	!	!	!	!	!	!	!	!LO:PB:g=original	!
=54	=54	=54	=54	=54	=54	=54	=54	=54	=54	=54
1E	ple-	.	1E	ple-	1G	ple-	1e	ple-	2.cc\	Do-
.	.	.	.	.	.	.	.	.	4cc\	-mi-
2E\	-na	.	2E\	-na	2G/	-na	2e\	-na	2cc\	-n(us)
=55	=55	=55	=55	=55	=55	=55	=55	=55	=55	=55
2.F\	Do-	.	2.F\	Do-	2.A\	Do-	2.c/	Do-	1a	Te-
4F\	-mi-	.	4F\	-mi-	4A\	-mi-	4c/	-mi-	.	.
2E\	-n(us)	.	2E\	-n(us)	2A\	-n(us)	2c/	-n(us)	2a\	-cum
=56	=56	=56	=56	=56	=56	=56	=56	=56	=56-	=56
*	*ij	*	*	*ij	*	*ij	*	*ij	*	*
2.D/	Do-	.	2.D/	Do-	2.d\	Do-	2.f\	Do-	2.bn\	Do-
4D/	-mi-	.	4D/	-mi-	4d\	-mi-	4f\	-mi-	4b\	-mi-
*	*	*	*	*	*custos:A	*	*	*	*	*
2C/	-(nus)	.	2C/	-n(us)	2e\	-n(us)	2e\	-n(us)	[<2cc\	-n(us)
*	*Xij	*	*	*Xij	*	*Xij	*	*Xij	*	*
!	!	!	!	!	!LO:LB:g=original	!	!	!	!	!
=57	=57	=57	=57	=57	=57	=57	=57	=57	=57	=57
2F\	Te-	.	2F\	Te-	2A/	Te-	1.d	Te-	2cc\]	.
2G\	.	.	2G\	.	1G	.	.	.	(2cc\	Te-
2GG/	.	.	2GG/	.	.	.	.	.	2b\)	.
=58	=58	=58	=58	=58	=58	=58	=58	=58	=58	=58
2C/	-cum	.	2C/	-cum	2G,</	-cum	2e\	-cum	2cc\	-cum
2rBB	.	.	2r	.	2c\	be-	2r	.	2r	.
2rBB	.	.	2r	.	2A\	-ne-	2r	.	2r	.
!LO:LB:g=original	!	!	!LO:PB:g=original	!	!	!	!LO:PB:g=original	!	!	!
=59	=59	=59	=59	=59	=59	=59	=59	=59	=59	=59
2r	.	.	2r	.	2B\	-di-	0.r	.	0.r	.
2G\	be-	.	2G\	be-	2G/	-cta	.	.	.	.
2E\	-ne-	.	2E\	-ne-	2c\	tu	.	.	.	.
=60	=60	=60	=60	=60	=60	=60	=60-	=60	=60-	=60
(2F\	-di-	.	(2F\	-di-	1A	be-	.	.	.	.
2D\	.	.	2D/)	.	.	.	.	.	.	.
2G\)	.	.	2G\	-cta	2B\	-ne-	.	.	.	.
=61	=61	=61	=61	=61	=61	=61	=61	=61	=61	=61
1E	-cta	.	1E	Tu	2c\	-di-	1.r	.	2r	.
.	.	.	.	.	2c\	-cta	.	.	2cc\	be-
2F\	Tu	.	2F\	in	2f\	Tu	.	.	2a\	-ne-
=62	=62	=62	=62	=62	=62	=62	=62	=62	=62	=62
2G\	in	.	2G\	mu-	2d\	in	2r	.	4b\	-di-
.	.	.	.	.	.	.	.	.	4b\	-cta
2E\	mu-	.	2E\	.	2e\	mu-	2g\	in	4g/	Tu
.	.	.	.	.	.	.	.	.	4g/	in
2C/	-li-	.	2C/	-li-	2e\	-li-	4e\	mu-	4cc\	mu-
.	.	.	.	.	.	.	4e\	-li-	4cc\	-li-
=63	=63	=63	=63	=63	=63	=63	=63	=63	=63-	=63
2.D/	-e-	.	2.D/	-e-	2.d\	-e-	2.f#X\	-e-	2.a\	-e-
4D/	-ri-	.	4D/	-ri-	4d\	-ri-	4f#\	-ri-	4a\	-ri-
2GG/	-b(us)	.	2GG/	-b(us)	2d\	-b(us)	2g\	-bus	2b,<\	-b(us)
!	!	!	!	!	!	!	!	!	!LO:LB:g=original	!
=64	=64	=64	=64	=64	=64	=64	=64	=64	=64	=64
2C/	et	.	2C/	et	2c\	et	2e\	et	2cc\	et
2E\	be-	.	2E\	be-	2G/	be-	2.e\	be-	2cc\	be-
2C/	-ne-	.	2C/	-ne-	2G/	-ne-	.	.	2cc\	-ne-
.	.	.	.	.	.	.	4d\	-ne-	.	.
=65	=65	=65	=65	=65	=65	=65	=65	=65	=65	=65
2F\	-di-	.	2F\	-di-	1.A	-di-	4c/	-di-	2a\	-di-
.	.	.	.	.	.	.	4c/	-ct(us)	.	.
2D\	.	.	2D\	.	.	.	2.f\	Fru-	2dd,<\	-ctus
2F\	.	.	2F\	.	.	.	.	.	4dd\	Fru-
.	.	.	.	.	.	.	4e\	-ct(us)	4cc\	-ct(us)
=66	=66	=66	=66	=66	=66	=66	=66	=66	=66	=66
2G\	ctus	.	2G,<\	ctus	1.B	-ctus	4d\	Ven-	4b\	Ven-
.	.	.	.	.	.	.	4c\	.	4a\	.
2.G\	Fru-	.	2.G\	Fru-	.	.	4d\	.	4b\	.
.	.	.	.	.	.	.	4e\	.	4cc\	.
.	.	.	.	.	.	.	4f\	.	4dd\	.
*custos:E	*	*	*	*	*	*	*	*	*	*
4F\	-ct(us)	.	4F\	-ct(us)	.	.	4d\	.	4b\	.
!LO:LB:g=original	!	!	!LO:LB:g=original	!	!LO:PB:g=original	!	!	!	!	!
=67	=67	=67	=67	=67	=67	=67	=67	=67	=67	=67
4E\	Ven-	.	4E\	Ven-	2c\	Fru-	1g	.	1cc	.
4D\	.	.	4D\	.	.	.	.	.	.	.
4E\	.	.	4E\	.	1e	-ct(us)	.	.	.	.
4F\	.	.	4F\	.	.	.	.	.	.	.
4G\	.	.	4G\	.	.	.	2g\	-tris	2cc\	-tris
4E\	.	.	4E\	.	.	.	.	.	.	.
=68	=68	=68	=68	=68	=68	=68	=68	=68	=68	=68
2F\	.	.	2F\	.	2c\	Ven-	(2a\	Tu-	2a\	Ven-
2E,<\	-tris	.	2E,<\	-tris	2c\	-tris	2e\	.	2a\	-tris
2D/	Tu-	.	2D/	tu-	2d\	Tu-	2f\)	.	2b\	Tu-
=69	=69	=69	=69	=69	=69	=69	=69	=69	=69	=69
2C,</	-i.	.	2C,</	-i	2G,</	-i,	2e,<\	-i	2cc,<\	-i,
2c\	Al-	.	2c\	al-	2c\	al-	(4g\	al-	2ee\	Al-
.	.	.	.	.	.	.	4a\)	.	.	.
2G\	-le-	.	2G\	-le-	2B\	-le-	(4g\	-le-	2dd\	-le-
.	.	.	.	.	.	.	4f\)	.	.	.
!	!	!	!	!	!	!	!LO:LB:g=original	!	!	!
=70	=70	=70	=70	=70	=70	=70	=70	=70	=70	=70
2A\	-lu-	.	2A\	-lu-	2c\	-lu-	2e\	-lu-	2cc\	-lu-
2F\	-ia	.	2F\	-ia	1A	-ia	4f\	-ia	2dd\	-ia
.	.	.	.	.	.	.	4g\	.	.	.
*	*ij	*	*	*	*	*	*	*	*	*
2D/	Al-	.	2D/	al-	.	.	4f\	.	2a\	al-
.	.	.	.	.	.	.	4e\	.	.	.
=71	=71	=71	=71	=71	=71	=71	=71	=71	=71	=71
4G\	-le-	.	4G\	-le-	4B\	al-	1d	al-	1b	-le-
4A\	.	.	4A\	.	4c\	.	.	.	.	.
4G\	.	.	4G\	.	4B\	.	.	.	.	.
4F\	.	.	4F\	.	4A\	.	.	.	.	.
*	*	*	*	*	*	*	*	*	*custos:cc	*
2E\	.	.	2E\	.	2G/	.	2e\	-le-	[<2cc\	.
!	!	!	!	!	!	!	!	!	!LO:LB:g=original	!
=72	=72	=72	=72	=72	=72	=72	=72	=72	=72	=72
!	!	!	!	!	!	!	!	!	!LO:TX:t=P:problem=brak zakończenia ligatury	!
2F\	.	.	2F\	.	2A/	-le-	1.d	-lu-	2cc\]	.
1G	-lu-	.	1G	-lu-	1G	-lu-	.	.	2cc\	-lu-
.	.	.	.	.	.	.	.	.	2b\	.
=73	=73	=73	=73	=73	=73	=73	=73	=73	=73	=73
!	!	!	!LO:N:vis=0.	!	!LO:N:vis=0	!	!LO:N:vis=0	!	!	!
1.C;	-ia	.	1.C;	-ia.	1.G;	-ia.	1.e;	-ia.	1.cc	-ia.
*	*Xij	*	*	*	*	*	*	*	*	*
==	==	==	==	==	==	==	==	==	==	==
*-	*-	*-	*-	*-	*-	*-	*-	*-	*-	*-
!!!system-decoration: [g1],g2
!!!RDF**kern: > = above
!!!RDF**kern: < = below
!!!AIN: 1 alto 2 empty 1 tenor 1 vox
!!!ENC: Andrzej Kubiczek
!!!END: 2021-03-28
!!!ENC: Krzysztof Stępień
!!!END: 2021-03-10
